src/icons/bicep.svg

<svg viewBox="0 0 24 24" xmlns="http://www.w3.org/2000/svg">
  <path
    d="M3.45 18.021s.95-10.685 3.8-14.57l4.748.95-.95 2.935h-1.9v6.8h.95c1.9-2.915 5.833-3.98 8.207-2.915 3.134 1.453 2.85 5.831 0 7.769-2.28 1.558-9.156 2.916-14.855-.969z"
    style="fill: #fbc02d; stroke-width: 0.94982"
  />
</svg>

<svg viewBox="0 0 24 24" xmlns="http://www.w3.org/2000/svg">
  <path
    d="M3.45 18.021C3.45 18.021 4.4 7.336 7.25 3.451L11.998 4.401L11.048 7.336H9.148V14.136H10.098C11.998 11.221 15.931 10.156 18.305 11.221C21.439 12.674 21.155 17.052 18.305 18.99C16.025 20.548 9.149 21.906 3.45 18.021Z"
    fill="#FBC02D"
  />
</svg>
